uploads/global/wundermobility-logo.svg

<svg fill="none" height="22" viewBox="0 0 224 22" width="224" xmlns="http://www.w3.org/2000/svg"><g fill="#fff"><path d="m15.8442 15.9455c.8556-.8663 1.3355-2.036 1.3355-3.255 0-1.2189-.4799-2.3886-1.3355-3.25498l-8.02881-8.06503c-.42529-.426243-.93019-.764358-1.48587-.99504s-1.15125-.3494128-1.75272-.3494128-1.19705.1187308-1.75273.3494128-1.06058.568797-1.48586.99504c-.857152.86478-1.33821 2.03421-1.33821 3.25312s.481058 2.38834 1.33821 3.25312l8.02884 8.06877c.85985.859 2.02445 1.3414 3.23855 1.3414 1.2142 0 2.3788-.4824 3.2386-1.3414zm24.1692-14.57501c-.8598-.858995-2.0244-1.3413418-3.2386-1.3413418-1.2141 0-2.3787.4823468-3.2385 1.3413418l-4.8842 4.89474-4.8842-4.89474c-.8602-.861294-2.0264-1.3450994-3.2424-1.3450994-1.2159 0-2.3821.4838054-3.2423 1.3450994-.8574.86542-1.3385 2.03548-1.3385 3.255 0 1.21953.4811 2.38959 1.3385 3.25501l8.0364 8.065c.8984.8577 2.0916 1.3361 3.3325 1.3361 1.2408 0 2.4341-.4784 3.3325-1.3361l8.0288-8.065c.8556-.86638 1.3355-2.03608 1.3355-3.25501 0-1.21892-.4799-2.38862-1.3355-3.255z"/><path d="m47.1211.640082h4.7527l2.412 9.364018h.0714l2.2242-9.364018h4.685l2.1791 9.341438h.0677l2.412-9.341438h4.7565l-5.1773 16.702418h-4.0501l-2.4609-10.16605h-.0451l-2.5999 10.16605h-4.0501zm23.3877 11.928118v-6.75098h4.1704v5.73818c0 1.6491.4433 2.3306 1.5028 2.3306.8867 0 1.5667-.7078 1.5667-2.2817v-5.78708h4.1929v11.52528h-4.1967v-1.22l-.0451-.0263c-.3742.4729-.8523.8529-1.3971 1.1102s-1.1416.3851-1.7438.3733c-2.3406 0-4.0501-1.2689-4.0501-5.0115zm13.2174-6.75098h4.1891v1.21992h.0489c.397-.46776.8929-.84116 1.4518-1.09318.5588-.25201 1.1665-.37633 1.7792-.36395 2.3181 0 4.0764 1.05802 4.0764 4.80059v6.9619h-4.1928v-5.949c0-1.64919-.4697-2.09725-1.5029-2.09725s-1.6643.68527-1.6643 2.25915v5.7871h-4.1854zm21.2648-5.7908637v6.9166537l-.045.02636c-.38-.44107-.852-.79383-1.382-1.03377-.53-.23993-1.106-.36127-1.687-.35559-2.8821 0-5.0837 2.44737-5.0837 6.00169 0 3.5544 2.1791 5.998 5.3427 5.998 1.311 0 2.318-.4255 3.005-1.2953h.057v1.0581h3.982v-17.3161437zm-1.942 13.8822437c-1.172 0-2.04-.9187-2.04-2.3269s.868-2.30804 2.04-2.30804 2.107.94134 2.107 2.30804c0 1.3668-.89 2.3269-2.107 2.3269zm19.409-2.421c0-3.46022-2.461-5.90759-5.764-5.90759-3.464 0-5.947 2.51891-5.947 6.00169 0 3.5506 2.574 5.998 6.011 5.998 2.63 0 4.355-.8472 5.317-2.0219l-2.255-2.4964c-.32.3703-.715.6687-1.159.8756-.443.207-.925.3179-1.414.3255-1.266 0-2.224-.5422-2.412-1.6491h7.514c.058-.3728.095-.7487.109-1.1258zm-7.612-1.1559c.057-.44008.275-.84303.613-1.12996.338-.28694.77-.43718 1.213-.42132.913 0 1.544.56478 1.732 1.55128zm9.205-4.51825h4.193v1.55126h.045c.343-.53765.814-.98214 1.369-1.2941.556-.31196 1.18-.48176 1.817-.49436h.022v4.49935c-.349-.0263-.702-.0263-.89-.0263-1.616 0-2.363.9187-2.363 2.2591v5.0341h-4.193zm13.082-5.177133h4.508l4.167 8.306003h.049l4.133-8.306003h4.508v16.702383h-4.403v-8.20812h-.068l-2.788 5.19972h-2.832l-2.788-5.24866h-.072v8.25706h-4.414zm19.161 10.937883c0-3.55058 2.577-5.99795 6.3-5.99795 3.724 0 6.279 2.44737 6.279 5.99795 0 3.5506-2.6 6.0017-6.279 6.0017-3.678 0-6.3-2.4474-6.3-6.0017zm8.363 0c0-1.3404-.845-2.28171-2.063-2.28171-1.217 0-2.085.94131-2.085 2.28171s.891 2.3081 2.085 2.3081c1.195 0 2.044-.9639 2.044-2.3081zm9.787 4.6839-.049.0226v1.058h-3.975v-17.3161089h4.193v6.9430089h.045c.379-.44286.851-.79686 1.381-1.03695s1.107-.36039 1.689-.3524c2.878 0 5.08 2.44737 5.08 5.99795 0 3.5506-2.202 6.0017-5.339 6.0017-1.311 0-2.341-.4255-3.043-1.3178zm4.167-4.6839c0-1.363-.864-2.3043-2.036-2.3043-1.24 0-2.131.9413-2.131 2.3043s.891 2.3306 2.131 2.3306c1.153 0 2.017-.9187 2.017-2.3306zm5.598-9.33768c0-1.25004 1.007-2.23652 2.412-2.23652s2.359.963888 2.359 2.23652c.004.30932-.056.61607-.176.90125-.119.28518-.296.54271-.519.75663s-.487.37967-.777.48697c-.289.10731-.598.15389-.906.13686-.31.01739-.62-.02869-.912-.13545-.291-.10676-.558-.27194-.784-.48547-.225-.21353-.405-.47092-.528-.75647-.124-.28554-.187-.59324-.188-.90432zm.278 3.57317h4.193v11.52901h-4.208zm6.421-5.7870989h4.193v17.3199089h-4.193zm6.161 2.2139289c0-1.25004 1.007-2.23652 2.431-2.23652s2.39.963888 2.39 2.23652c0 1.27264-1.003 2.28171-2.39 2.28171-.311.02006-.624-.02405-.917-.1296-.294-.10555-.563-.27031-.791-.48412-.228-.2138-.409-.47211-.534-.75899-.124-.28688-.188-.59624-.189-.909zm.278 3.57317h4.193v11.52901h-4.193zm6.793 7.90691v-4.56343h-1.24v-3.34348h1.24v-3.62212l4.193-.4217v4.04382h2.48v3.34348h-2.48v3.67103c0 .5385.068 1.1522.751 1.1522.289-.011.574-.0668.846-.1657l1.029 2.918c-1.019.6109-2.195.9057-3.381.8472-1.939 0-3.438-1.2237-3.438-3.8593zm11.85 2.7749-4.381-10.68181h4.475l1.878 5.43691h.072l1.826-5.43691h4.132l-5.879 16.19031h-4.069z"/></g></svg>

<svg width="224" height="22" viewBox="0 0 224 22" fill="none" xmlns="http://www.w3.org/2000/svg">
<path d="M15.8442 15.9455C16.6998 15.0792 17.1797 13.9095 17.1797 12.6905C17.1797 11.4716 16.6998 10.3019 15.8442 9.43552L7.81539 1.37049C7.3901 0.944247 6.8852 0.606132 6.32952 0.37545C5.77384 0.144768 5.17827 0.0260372 4.5768 0.0260372C3.97533 0.0260372 3.37975 0.144768 2.82407 0.37545C2.26839 0.606132 1.76349 0.944247 1.33821 1.37049V1.37049C0.481058 2.23527 0 3.4047 0 4.62361C0 5.84252 0.481058 7.01195 1.33821 7.87673L9.36705 15.9455C10.2269 16.8045 11.3915 17.2869 12.6056 17.2869C13.8198 17.2869 14.9844 16.8045 15.8442 15.9455ZM40.0134 1.37049C39.1536 0.511495 37.989 0.0291482 36.7748 0.0291482C35.5607 0.0291482 34.3961 0.511495 33.5363 1.37049L28.6521 6.26523L23.7679 1.37049C22.9077 0.509196 21.7415 0.0253906 20.5255 0.0253906C19.3096 0.0253906 18.1434 0.509196 17.2832 1.37049V1.37049C16.4258 2.23591 15.9447 3.40597 15.9447 4.62549C15.9447 5.84502 16.4258 7.01508 17.2832 7.8805L25.3196 15.9455C26.218 16.8032 27.4112 17.2816 28.6521 17.2816C29.8929 17.2816 31.0862 16.8032 31.9846 15.9455L40.0134 7.8805C40.869 7.01412 41.3489 5.84442 41.3489 4.62549C41.3489 3.40657 40.869 2.23687 40.0134 1.37049V1.37049Z" fill="white"/>
<path d="M47.1211 0.640082H51.8738L54.2858 10.0041H54.3572L56.5814 0.640082H61.2664L63.4455 9.98152H63.5132L65.9252 0.640082H70.6817L65.5044 17.3425H61.4543L58.9934 7.17645H58.9483L56.3484 17.3425H52.2983L47.1211 0.640082ZM70.5088 12.5682V5.81722H74.6792V11.5554C74.6792 13.2045 75.1225 13.886 76.182 13.886C77.0687 13.886 77.7487 13.1782 77.7487 11.6043V5.81722H81.9416V17.3425H77.7449V16.1225L77.6998 16.0962C77.3256 16.5691 76.8475 16.9491 76.3027 17.2064C75.7579 17.4637 75.1611 17.5915 74.5589 17.5797C72.2183 17.5797 70.5088 16.3108 70.5088 12.5682V12.5682ZM83.7262 5.81722H87.9153V7.03714H87.9642C88.3612 6.56938 88.8571 6.19598 89.416 5.94396C89.9748 5.69195 90.5825 5.56763 91.1952 5.58001C93.5133 5.58001 95.2716 6.63803 95.2716 10.3806V17.3425H91.0788V11.3935C91.0788 9.74431 90.6091 9.29625 89.5759 9.29625C88.5427 9.29625 87.9116 9.98152 87.9116 11.5554V17.3425H83.7262V5.81722ZM104.991 0.0263563V6.94301L104.946 6.96937C104.566 6.5283 104.094 6.17554 103.564 5.9356C103.034 5.69567 102.458 5.57433 101.877 5.58001C98.9949 5.58001 96.7933 8.02738 96.7933 11.5817C96.7933 15.1361 98.9724 17.5797 102.136 17.5797C103.447 17.5797 104.454 17.1542 105.141 16.2844H105.198V17.3425H109.18V0.0263563H104.991ZM103.049 13.9086C101.877 13.9086 101.009 12.9899 101.009 11.5817C101.009 10.1735 101.877 9.27366 103.049 9.27366C104.221 9.27366 105.156 10.215 105.156 11.5817C105.156 12.9485 104.266 13.9086 103.049 13.9086ZM122.458 11.4876C122.458 8.02738 119.997 5.58001 116.694 5.58001C113.23 5.58001 110.747 8.09892 110.747 11.5817C110.747 15.1323 113.321 17.5797 116.758 17.5797C119.388 17.5797 121.113 16.7325 122.075 15.5578L119.82 13.0614C119.5 13.4317 119.105 13.7301 118.661 13.937C118.218 14.144 117.736 14.2549 117.247 14.2625C115.981 14.2625 115.023 13.7203 114.835 12.6134H122.349C122.407 12.2406 122.444 11.8647 122.458 11.4876V11.4876ZM114.846 10.3317C114.903 9.89162 115.121 9.48867 115.459 9.20174C115.797 8.9148 116.229 8.76456 116.672 8.78042C117.585 8.78042 118.216 9.3452 118.404 10.3317H114.846ZM124.051 5.81345H128.244V7.36471H128.289C128.632 6.82706 129.103 6.38257 129.658 6.07061C130.214 5.75865 130.838 5.58885 131.475 5.57625H131.497V10.0756C131.148 10.0493 130.795 10.0493 130.607 10.0493C128.991 10.0493 128.244 10.968 128.244 12.3084V17.3425H124.051V5.81345ZM137.133 0.636317H141.641L145.808 8.94232H145.857L149.99 0.636317H154.498V17.3387H150.095V9.13058H150.027L147.239 14.3303H144.407L141.619 9.08164H141.547V17.3387H137.133V0.636317ZM156.294 11.5742C156.294 8.02362 158.871 5.57625 162.594 5.57625C166.318 5.57625 168.873 8.02362 168.873 11.5742C168.873 15.1248 166.273 17.5759 162.594 17.5759C158.916 17.5759 156.294 15.1285 156.294 11.5742ZM164.657 11.5742C164.657 10.2338 163.812 9.29249 162.594 9.29249C161.377 9.29249 160.509 10.2338 160.509 11.5742C160.509 12.9146 161.4 13.8823 162.594 13.8823C163.789 13.8823 164.638 12.9184 164.638 11.5742H164.657ZM174.444 16.2581L174.395 16.2807V17.3387H170.42V0.0225911H174.613V6.9656H174.658C175.037 6.52274 175.509 6.16874 176.039 5.92865C176.569 5.68856 177.146 5.56826 177.728 5.57625C180.606 5.57625 182.808 8.02362 182.808 11.5742C182.808 15.1248 180.606 17.5759 177.469 17.5759C176.158 17.5759 175.128 17.1504 174.426 16.2581H174.444ZM178.611 11.5742C178.611 10.2112 177.747 9.2699 176.575 9.2699C175.335 9.2699 174.444 10.2112 174.444 11.5742C174.444 12.9372 175.335 13.9048 176.575 13.9048C177.728 13.9048 178.592 12.9861 178.592 11.5742H178.611ZM184.209 2.23652C184.209 0.98648 185.216 0 186.621 0C188.026 0 188.98 0.963888 188.98 2.23652C188.984 2.54584 188.924 2.85259 188.804 3.13777C188.685 3.42295 188.508 3.68048 188.285 3.8944C188.062 4.10832 187.798 4.27407 187.508 4.38137C187.219 4.48868 186.91 4.53526 186.602 4.51823C186.292 4.53562 185.982 4.48954 185.69 4.38278C185.399 4.27602 185.132 4.11084 184.906 3.89731C184.681 3.68378 184.501 3.42639 184.378 3.14084C184.254 2.8553 184.191 2.5476 184.19 2.23652H184.209ZM184.487 5.80969H188.68V17.3387H184.472L184.487 5.80969ZM190.908 0.0225911H195.101V17.3425H190.908V0.0225911ZM197.069 2.23652C197.069 0.98648 198.076 0 199.5 0C200.924 0 201.89 0.963888 201.89 2.23652C201.89 3.50916 200.887 4.51823 199.5 4.51823C199.189 4.53829 198.876 4.49418 198.583 4.38863C198.289 4.28308 198.02 4.11832 197.792 3.90451C197.564 3.69071 197.383 3.4324 197.258 3.14552C197.134 2.85864 197.07 2.54928 197.069 2.23652V2.23652ZM197.347 5.80969H201.54V17.3387H197.347V5.80969ZM204.14 13.7166V9.15317H202.9V5.80969H204.14V2.18757L208.333 1.76587V5.80969H210.813V9.15317H208.333V12.8242C208.333 13.3627 208.401 13.9764 209.084 13.9764C209.373 13.9654 209.658 13.9096 209.93 13.8107L210.959 16.7287C209.94 17.3396 208.764 17.6344 207.578 17.5759C205.639 17.5759 204.14 16.3522 204.14 13.7166ZM215.99 16.4915L211.609 5.80969H216.084L217.962 11.2466H218.034L219.86 5.80969H223.992L218.113 22H214.044L215.99 16.4915Z" fill="white"/>
</svg>
